X: 648
T: Aden Y Fran Ddu
R: polka
M: 2/4
K: Dmajor
FAde f2 ef|gfed dcBA|AB G2 FGEF|DDFA d2 AG|
FAde f2 ef|gfed dcBA|AB G2 FGEF|DD FA d2:|
aeef g2 e/f/g|aeef g2 e/f/g|aeee aeee|agfe dcBA|
FAde f2 ef|gfed dcBA|AB G2 FGEF|DDFA d2:|

